X:1
T:Title
%%score ( 1 2 ) ( 3 4 )
L:1/8
Q:1/4=100
M:4/4
K:F
V:1 treble nm="Midi_20"
V:2 treble 
V:3 bass nm="Midi_20"
V:4 bass 
V:1
"^Wraysbury (87. 87)""^E. J. Hopkins\n(1818-1901)" A2 G2 F2 A2 | G2 c2 AG F2 | F2 A2 G2 c2 | %3
 cd =B2 c4 || c2 A2 F2 A2 | G2 D2 EF G2 | F2 A2 G2 F2 | F2 E2 F4 |] %8
V:2
 F2 E2 D2 C2 | D2 C2 C2 C2 | C2 F2 G2 E2 | D2 D2 E4 || F2 E2 D2 FE | D2 D2 C2 C2 | A,2 F2 FE D2 | %7
 C2 C2 C4 |] %8
V:3
 C2 B,2 A,2 F,2 | F,2 E,2 F,G, A,2 | A,2 A,=B, C2 C2 | A,2 G,2 G,4 || F,G, A,2 A,2 C2 | %5
 G,2 B,2 G,F, E,2 | F,2 C2 D2 B,A, | G,F, G,2 A,4 |] %8
V:4
 F,2 C,2 D,2 A,,2 | B,,2 C,2 F,2 F,2 | F,2 D,2 E,2 A,G, | F,2 G,2 C,4 || A,,2 C,2 D,2 A,,2 | %5
 B,,2 G,,2 C,2 C,2 | D,2 A,,2 B,,2 B,,2 | C,2 C,2 F,4 |] %8

